assets/layers/bench/bench.svg

<?xml version="1.0" encoding="UTF-8" standalone="no"?>
<svg
   width="375px"
   height="375px"
   viewBox="0 0 375 375"
   version="1.1"
   id="svg25"
   sodipodi:docname="bench.svg"
   inkscape:version="1.1.2 (0a00cf5339, 2022-02-04)"
   xmlns:inkscape="http://www.inkscape.org/namespaces/inkscape"
   xmlns:sodipodi="http://sodipodi.sourceforge.net/DTD/sodipodi-0.dtd"
   xmlns="http://www.w3.org/2000/svg"
   xmlns:svg="http://www.w3.org/2000/svg">
  <defs
     id="defs29" />
  <sodipodi:namedview
     id="namedview27"
     pagecolor="#505050"
     bordercolor="#eeeeee"
     borderopacity="1"
     inkscape:pageshadow="0"
     inkscape:pageopacity="0"
     inkscape:pagecheckerboard="0"
     showgrid="false"
     inkscape:zoom="2.04"
     inkscape:cx="187.7451"
     inkscape:cy="187.5"
     inkscape:window-width="1920"
     inkscape:window-height="995"
     inkscape:window-x="0"
     inkscape:window-y="0"
     inkscape:window-maximized="1"
     inkscape:current-layer="svg25" />
  <path
     style="fill:#000000;fill-opacity:0.2;fill-rule:nonzero;stroke:none"
     d="m 58.65625,117.18359 c -6.566406,0 -11.851562,5.28516 -11.851562,11.84766 v 46.61328 c 0,6.5625 5.285156,11.84766 11.851562,11.84766 h 35.023438 v 23.4375 h -46.875 v 23.4375 h 46.875 v 46.875 h 23.437502 v -46.875 h 140.625 v 46.875 h 23.4375 v -46.875 h 46.875 v -23.4375 h -46.875 v -23.4375 h 35.02343 c 6.56641,0 11.85157,-5.28516 11.85157,-11.84766 v -46.61328 c 0,-6.5625 -5.28516,-11.84766 -11.85157,-11.84766 z m 58.46094,70.3086 h 140.625 v 23.4375 h -140.625 z m 0,0"
     id="path4" />
  <path
     style="fill:#666666;fill-opacity:1;fill-rule:nonzero;stroke:none"
     d="m 93.691406,175.77344 h 23.437504 v 93.75 H 93.691406 Z m 0,0"
     id="path6" />
  <path
     style="fill:#666666;fill-opacity:1;fill-rule:nonzero;stroke:none"
     d="m 257.75391,175.77344 h 23.4375 v 93.75 h -23.4375 z m 0,0"
     id="path8" />
  <path
     style="fill:#ae8761;fill-opacity:1;fill-rule:nonzero;stroke:none"
     d="M 58.652344,105.46875 H 316.20312 c 6.56641,0 11.85157,5.28516 11.85157,11.85156 v 46.61328 c 0,6.5625 -5.28516,11.84766 -11.85157,11.84766 H 58.652344 c -6.566406,0 -11.851563,-5.28516 -11.851563,-11.84766 v -46.61328 c 0,-6.5664 5.285157,-11.85156 11.851563,-11.85156 z m 0,0"
     id="path10" />
  <path
     style="fill:#876645;fill-opacity:1;fill-rule:nonzero;stroke:none"
     d="M 70.253906,117.1875 H 304.62891 v 11.71875 H 70.253906 Z m 0,0"
     id="path12" />
  <path
     style="fill:#876645;fill-opacity:1;fill-rule:nonzero;stroke:none"
     d="M 46.816406,210.92969 H 328.06641 v 11.71875 H 46.816406 Z m 0,0"
     id="path14" />
  <path
     style="fill:#876645;fill-opacity:1;fill-rule:nonzero;stroke:none"
     d="M 70.253906,152.33594 H 304.62891 v 11.71875 H 70.253906 Z m 0,0"
     id="path16" />
  <path
     style="fill:#666666;fill-opacity:1;fill-rule:nonzero;stroke:none"
     d="m 117.12891,140.61719 c 0,6.47265 -5.2461,11.71875 -11.71875,11.71875 -6.47266,0 -11.718754,-5.2461 -11.718754,-11.71875 0,-6.46875 5.246094,-11.71875 11.718754,-11.71875 6.47265,0 11.71875,5.25 11.71875,11.71875"
     id="path18" />
  <path
     style="fill:#666666;fill-opacity:1;fill-rule:nonzero;stroke:none"
     d="m 281.19141,140.61719 c 0,6.47265 -5.2461,11.71875 -11.71875,11.71875 -6.47266,0 -11.71875,-5.2461 -11.71875,-11.71875 0,-6.46875 5.24609,-11.71875 11.71875,-11.71875 6.47265,0 11.71875,5.25 11.71875,11.71875"
     id="path20" />
  <path
     style="fill:#ae8761;fill-opacity:1;fill-rule:nonzero;stroke:none"
     d="M 46.816406,199.21094 H 328.06641 v 11.71875 H 46.816406 Z m 0,0"
     id="path22" />
</svg>

<?xml version="1.0" encoding="UTF-8" standalone="yes"?>
<svg xmlns="http://www.w3.org/2000/svg" width="375px" height="375px" viewBox="0 0 375 375" version="1.1">
  <g id="surface1">
    <path style=" stroke:none;fill-rule:nonzero;fill:rgb(60.784316%,74.509805%,33.333334%);fill-opacity:1;" d="M 375 187.5 C 375 291.054688 291.054688 375 187.5 375 C 83.949219 375 0 291.054688 0 187.5 C 0 83.949219 83.949219 0 187.5 0 C 291.054688 0 375 83.949219 375 187.5 "/>
    <path style=" stroke:none;fill-rule:nonzero;fill:rgb(0%,0%,0%);fill-opacity:0.2;" d="M 58.65625 117.183594 C 52.089844 117.183594 46.804688 122.46875 46.804688 129.03125 L 46.804688 175.644531 C 46.804688 182.207031 52.089844 187.492188 58.65625 187.492188 L 93.679688 187.492188 L 93.679688 210.929688 L 46.804688 210.929688 L 46.804688 234.367188 L 93.679688 234.367188 L 93.679688 281.242188 L 117.117188 281.242188 L 117.117188 234.367188 L 257.742188 234.367188 L 257.742188 281.242188 L 281.179688 281.242188 L 281.179688 234.367188 L 328.054688 234.367188 L 328.054688 210.929688 L 281.179688 210.929688 L 281.179688 187.492188 L 316.203125 187.492188 C 322.769531 187.492188 328.054688 182.207031 328.054688 175.644531 L 328.054688 129.03125 C 328.054688 122.46875 322.769531 117.183594 316.203125 117.183594 Z M 117.117188 187.492188 L 257.742188 187.492188 L 257.742188 210.929688 L 117.117188 210.929688 Z M 117.117188 187.492188 "/>
    <path style=" stroke:none;fill-rule:nonzero;fill:rgb(40.000001%,40.000001%,40.000001%);fill-opacity:1;" d="M 93.691406 175.773438 L 117.128906 175.773438 L 117.128906 269.523438 L 93.691406 269.523438 Z M 93.691406 175.773438 "/>
    <path style=" stroke:none;fill-rule:nonzero;fill:rgb(40.000001%,40.000001%,40.000001%);fill-opacity:1;" d="M 257.753906 175.773438 L 281.191406 175.773438 L 281.191406 269.523438 L 257.753906 269.523438 Z M 257.753906 175.773438 "/>
    <path style=" stroke:none;fill-rule:nonzero;fill:rgb(68.235296%,53.333336%,38.431373%);fill-opacity:1;" d="M 58.652344 105.46875 L 316.203125 105.46875 C 322.769531 105.46875 328.054688 110.753906 328.054688 117.320312 L 328.054688 163.933594 C 328.054688 170.496094 322.769531 175.78125 316.203125 175.78125 L 58.652344 175.78125 C 52.085938 175.78125 46.800781 170.496094 46.800781 163.933594 L 46.800781 117.320312 C 46.800781 110.753906 52.085938 105.46875 58.652344 105.46875 Z M 58.652344 105.46875 "/>
    <path style=" stroke:none;fill-rule:nonzero;fill:rgb(53.725493%,40.784314%,27.843139%);fill-opacity:1;" d="M 70.253906 117.1875 L 304.628906 117.1875 L 304.628906 128.90625 L 70.253906 128.90625 Z M 70.253906 117.1875 "/>
    <path style=" stroke:none;fill-rule:nonzero;fill:rgb(53.725493%,40.784314%,27.843139%);fill-opacity:1;" d="M 46.816406 210.929688 L 328.066406 210.929688 L 328.066406 222.648438 L 46.816406 222.648438 Z M 46.816406 210.929688 "/>
    <path style=" stroke:none;fill-rule:nonzero;fill:rgb(53.725493%,40.784314%,27.843139%);fill-opacity:1;" d="M 70.253906 152.335938 L 304.628906 152.335938 L 304.628906 164.054688 L 70.253906 164.054688 Z M 70.253906 152.335938 "/>
    <path style=" stroke:none;fill-rule:nonzero;fill:rgb(40.000001%,40.000001%,40.000001%);fill-opacity:1;" d="M 117.128906 140.617188 C 117.128906 147.089844 111.882812 152.335938 105.410156 152.335938 C 98.9375 152.335938 93.691406 147.089844 93.691406 140.617188 C 93.691406 134.148438 98.9375 128.898438 105.410156 128.898438 C 111.882812 128.898438 117.128906 134.148438 117.128906 140.617188 "/>
    <path style=" stroke:none;fill-rule:nonzero;fill:rgb(40.000001%,40.000001%,40.000001%);fill-opacity:1;" d="M 281.191406 140.617188 C 281.191406 147.089844 275.945312 152.335938 269.472656 152.335938 C 263 152.335938 257.753906 147.089844 257.753906 140.617188 C 257.753906 134.148438 263 128.898438 269.472656 128.898438 C 275.945312 128.898438 281.191406 134.148438 281.191406 140.617188 "/>
    <path style=" stroke:none;fill-rule:nonzero;fill:rgb(68.235296%,53.333336%,38.431373%);fill-opacity:1;" d="M 46.816406 199.210938 L 328.066406 199.210938 L 328.066406 210.929688 L 46.816406 210.929688 Z M 46.816406 199.210938 "/>
  </g>
</svg>
